flags/cq.svg

<svg width="512" height="512" viewBox="0 0 512 512" fill="none" xmlns="http://www.w3.org/2000/svg">
<rect width="512" height="512" fill="var(--flag-palette-white, #eeeeee)"/>
<path d="M512 288V224H288V0H224V224H0V288H224V512H288V288H512Z" fill="var(--flag-palette-bright-red, #d80027)"/>
<rect width="256" height="256" fill="var(--flag-palette-bright-red, #d80027)"/>
<path d="M80 19.1953C73.9 19.1953 68.0499 21.6185 63.7365 25.9319C59.4232 30.2452 57 36.0953 57 42.1953V58.1953H48V49.1953C48 39.1953 40 31.1953 30 31.1953C28 31.1953 26 33.1953 26 35.1953V77.1953C26 79.1953 28 81.1953 30 81.1953H57C56.8646 84.036 57.3076 86.8747 58.3021 89.5391C59.2967 92.2035 60.822 94.6381 62.7857 96.6953C64.7494 98.7525 67.1105 100.389 69.7258 101.507C72.3411 102.624 75.156 103.199 78 103.195V112.195H70C59 112.195 51 120.195 51 130.195C51 133.195 53 135.195 56 135.195H97C100 135.195 102 133.195 102 130.195V102.195H159V111.195H150C140 111.195 132 119.195 132 129.195C132 131.195 134 133.195 136 133.195H178C180 133.195 182 131.195 182 129.195V74.1953C191 74.1953 198 67.1953 198 58.1953C198 49.1953 191 42.1953 182 42.1953H128C125 42.1953 123 40.1953 123 37.1953C123 34.1953 125 31.1953 128 31.1953H182V21.1953H128C120 21.1953 112 28.1953 112 37.1953C112 45.1953 120 53.1953 128 53.1953H182C185 53.1953 188 55.1953 188 58.1953C188 61.1953 185 63.1953 182 63.1953H124C112 63.1953 102 54.1953 102 42.1953C102.006 36.2647 99.7201 30.5612 95.6208 26.2754C91.5214 21.9897 85.925 19.4532 80 19.1953ZM80 154.195C73.9 154.195 68.0499 156.619 63.7365 160.932C59.4232 165.245 57 171.095 57 177.195V193.195H48V184.195C48 174.195 40 166.195 30 166.195C28 166.195 26 168.195 26 170.195V212.195C26 214.195 28 216.195 30 216.195H57C56.8646 219.036 57.3076 221.875 58.3021 224.539C59.2967 227.203 60.822 229.638 62.7857 231.695C64.7494 233.753 67.1105 235.389 69.7258 236.507C72.3411 237.624 75.156 238.199 78 238.195V247.195H70C59 247.195 51 255.195 51 265.195C51 268.195 53 270.195 56 270.195H97C100 270.195 102 268.195 102 265.195V237.195H159V246.195H150C140 246.195 132 254.195 132 264.195C132 266.195 134 268.195 136 268.195H178C180 268.195 182 266.195 182 264.195V209.195C191 209.195 198 202.195 198 193.195C198 184.195 191 177.195 182 177.195H128C125 177.195 123 175.195 123 172.195C123 169.195 125 166.195 128 166.195H182V156.195H128C120 156.195 112 163.195 112 172.195C112 180.195 120 188.195 128 188.195H182C185 188.195 188 190.195 188 193.195C188 196.195 185 198.195 182 198.195H124C112 198.195 102 189.195 102 177.195C102.006 171.265 99.7201 165.561 95.6208 161.275C91.5214 156.99 85.925 154.453 80 154.195Z" fill="var(--flag-palette-yellow, #ffda44)"/>
</svg>

<svg xmlns="http://www.w3.org/2000/svg" width="512" height="512" fill="none"><path fill="var(--flag-palette-white, #eeeeee)" d="M0 0h512v512H0z"/><path fill="var(--flag-palette-bright-red, #d80027)" d="M512 288v-64H288V0h-64v224H0v64h224v224h64V288z"/><path fill="var(--flag-palette-bright-red, #d80027)" d="M0 0h256v256H0z"/><path fill="var(--flag-palette-yellow, #ffda44)" d="M80 19.2a23 23 0 0 0-23 23v16h-9v-9c0-10-8-18-18-18-2 0-4 2-4 4v42c0 2 2 4 4 4h27a21 21 0 0 0 21 22v9h-8c-11 0-19 8-19 18 0 3 2 5 5 5h41c3 0 5-2 5-5v-28h57v9h-9c-10 0-18 8-18 18 0 2 2 4 4 4h42c2 0 4-2 4-4v-55c9 0 16-7 16-16s-7-16-16-16h-54c-3 0-5-2-5-5s2-6 5-6h54v-10h-54c-8 0-16 7-16 16 0 8 8 16 16 16h54c3 0 6 2 6 5s-3 5-6 5h-58c-12 0-22-9-22-21a23 23 0 0 0-22-23m0 135a23 23 0 0 0-23 23v16h-9v-9c0-10-8-18-18-18-2 0-4 2-4 4v42c0 2 2 4 4 4h27a21 21 0 0 0 21 22v9h-8c-11 0-19 8-19 18 0 3 2 5 5 5h41c3 0 5-2 5-5v-28h57v9h-9c-10 0-18 8-18 18 0 2 2 4 4 4h42c2 0 4-2 4-4v-55c9 0 16-7 16-16s-7-16-16-16h-54c-3 0-5-2-5-5s2-6 5-6h54v-10h-54c-8 0-16 7-16 16 0 8 8 16 16 16h54c3 0 6 2 6 5s-3 5-6 5h-58c-12 0-22-9-22-21a23 23 0 0 0-22-23"/></svg>
